X:3
T:Die lustige Witwe (Walzer)  GC 2+
%%MIDI program 21
R:waltz
M:3/4
L:1/4
K:G %%MIDI gchordon
d |: "G"d2B | d2e | (d3 | d)zd | d2B | d2g | "D7"(f3 | f)ag | (!>!f2e) | \
(!>!f2e) | c3 |
zfe | !>!e2d | !>!e2d |1 "G"B3 | zBc :|2 ("G"G3 | G)^c/2d/2 c/2d/2 |] \
!>!"D7"f3 | z^c/2d/2 c/2d/2 | !>!"G"g3 |
z^c/2d/2 c/2d/2 | !>!"Am"a3 | "D7"zb>a | "G"agd | z^c/2d/2 c/2d/2 | \
!>!"D7"f3 | z^c/2d/2 c/2d/2 | !>!"G"g3 | zg/2f/2 g/2f/2 |
"D7"dd/2^c/2 d/2e/2 | dfa | "G"g>gg | gzz \
|: [K:C]"C".e!>!e>e | .e.d.c | "G7"(cBd) | f3 | .f!>!f>f |
.f.e.d | "C"(dce) | g3 | .g!>!g>g | \
gfe | "F".a!>!a>a | agf | "C"efe | "G7"d!>!e>d | "C"c>cc | czz :|
% wz00845

